assets/Trade mark/Flat/trade_mark_flat.svg

<svg width="32" height="32" viewBox="0 0 32 32" fill="none" xmlns="http://www.w3.org/2000/svg">
<path d="M2.2896 2H10.7104C11.4193 2 12 2.52754 12 3.17145C12 3.81536 11.4193 4.3429 10.7104 4.3429H7.8323V10.8208C7.8323 11.4647 7.26009 12 6.55124 12C5.84239 12 5.26165 11.4725 5.26165 10.8285V4.3429H2.2896C1.58075 4.3429 1 3.81536 1 3.17145C1 2.52754 1.58075 2 2.2896 2Z" fill="#321B41"/>
<path d="M23.6366 2.01116C23.6581 2.00922 23.6796 2.00728 23.7011 2.00728C24.4151 2.00728 25 2.53444 25 3.17788V10.8216C25 11.4651 24.4409 12 23.7269 12C23.0129 12 22.428 11.4728 22.428 10.8294V5.75164L19.8645 8.06183C19.5892 8.30215 19.228 8.41068 18.8753 8.39518C18.514 8.41844 18.1527 8.30215 17.886 8.06183L15.5978 5.99972V10.8216C15.5978 11.4651 15.0129 11.9922 14.2989 11.9922C13.5849 11.9922 13 11.4651 13 10.8216V3.18563C13 2.87554 13.1204 2.5732 13.3785 2.34063C13.757 1.99178 14.3247 1.91425 14.7978 2.09256C14.9527 2.14682 15.0903 2.2321 15.2108 2.34063L18.8581 5.62761L22.5054 2.34063C22.7978 2.08481 23.1935 1.97627 23.572 2.01503C23.5935 2.01503 23.6151 2.0131 23.6366 2.01116Z" fill="#321B41"/>
</svg>

<svg xmlns="http://www.w3.org/2000/svg" width="32" height="32" fill="none"><path fill="#321B41" d="M2.29 2h8.42c.71 0 1.29.528 1.29 1.171 0 .644-.58 1.172-1.29 1.172H7.832v6.478c0 .644-.572 1.179-1.28 1.179-.71 0-1.29-.527-1.29-1.171V4.343H2.29C1.58 4.343 1 3.815 1 3.17 1 2.528 1.58 2 2.29 2ZM23.637 2.011c.021-.002.043-.004.064-.004.714 0 1.299.527 1.299 1.17v7.645c0 .643-.56 1.178-1.273 1.178-.714 0-1.299-.527-1.299-1.17V5.751l-2.564 2.31a1.41 1.41 0 0 1-.989.333 1.35 1.35 0 0 1-.989-.333L15.598 6v4.822c0 .643-.585 1.17-1.3 1.17-.713 0-1.298-.527-1.298-1.17V3.186c0-.31.12-.613.379-.845.378-.35.946-.427 1.419-.248.155.054.292.14.413.248l3.647 3.287 3.647-3.287a1.408 1.408 0 0 1 1.067-.326.721.721 0 0 0 .065-.004Z"/></svg>
